; G-Code generated by Simplify3D(R) Version 4.0.0
; Sep 7, 2021 at 9:08:03 PM
; Settings Summary
;   processName,Process1
;   applyToModels,parte2
;   profileName,prusa i3 (modified)
;   profileVersion,2020-04-28 11:32:13
;   baseProfile,Default (modified)
;   printMaterial,PLA
;   printQuality,High
;   printExtruders,
;   extruderName,Primary Extruder
;   extruderToolheadNumber,0
;   extruderDiameter,0.4
;   extruderAutoWidth,0
;   extruderWidth,0.6
;   extrusionMultiplier,1
;   extruderUseRetract,1
;   extruderRetractionDistance,1
;   extruderExtraRestartDistance,0
;   extruderRetractionZLift,0.3
;   extruderRetractionSpeed,1800
;   extruderUseCoasting,0
;   extruderCoastingDistance,0.2
;   extruderUseWipe,0
;   extruderWipeDistance,5
;   primaryExtruder,0
;   layerHeight,0.3
;   topSolidLayers,1
;   bottomSolidLayers,3
;   perimeterOutlines,1
;   printPerimetersInsideOut,1
;   startPointOption,2
;   startPointOriginX,0
;   startPointOriginY,0
;   sequentialIslands,0
;   spiralVaseMode,0
;   firstLayerHeightPercentage,70
;   firstLayerWidthPercentage,100
;   firstLayerUnderspeed,0.5
;   useRaft,0
;   raftExtruder,0
;   raftTopLayers,3
;   raftBaseLayers,2
;   raftOffset,3
;   raftSeparationDistance,0.14
;   raftTopInfill,100
;   aboveRaftSpeedMultiplier,0.3
;   useSkirt,0
;   skirtExtruder,0
;   skirtLayers,1
;   skirtOutlines,1
;   skirtOffset,2.5
;   usePrimePillar,0
;   primePillarExtruder,999
;   primePillarWidth,12
;   primePillarLocation,7
;   primePillarSpeedMultiplier,1
;   useOozeShield,0
;   oozeShieldExtruder,999
;   oozeShieldOffset,2
;   oozeShieldOutlines,1
;   oozeShieldSidewallShape,1
;   oozeShieldSidewallAngle,30
;   oozeShieldSpeedMultiplier,1
;   infillExtruder,0
;   internalInfillPattern,Rectilinear
;   externalInfillPattern,Rectilinear
;   infillPercentage,15
;   outlineOverlapPercentage,40
;   infillExtrusionWidthPercentage,100
;   minInfillLength,5
;   infillLayerInterval,1
;   internalInfillAngles,45,-45
;   overlapInternalInfillAngles,0
;   externalInfillAngles,45,-45
;   generateSupport,1
;   supportExtruder,0
;   supportInfillPercentage,40
;   supportExtraInflation,0
;   supportBaseLayers,0
;   denseSupportExtruder,0
;   denseSupportLayers,0
;   denseSupportInfillPercentage,70
;   supportLayerInterval,1
;   supportHorizontalPartOffset,0.3
;   supportUpperSeparationLayers,1
;   supportLowerSeparationLayers,1
;   supportType,0
;   supportGridSpacing,4
;   maxOverhangAngle,45
;   supportAngles,0
;   temperatureName,Primary Extruder,cama
;   temperatureNumber,0,0
;   temperatureSetpointCount,2,1
;   temperatureSetpointLayers,1,2,1
;   temperatureSetpointTemperatures,220,210,60
;   temperatureStabilizeAtStartup,1,1
;   temperatureHeatedBed,0,1
;   temperatureRelayBetweenLayers,0,0
;   temperatureRelayBetweenLoops,0,0
;   fanLayers,1,2
;   fanSpeeds,30,40
;   blipFanToFullPower,0
;   adjustSpeedForCooling,1
;   minSpeedLayerTime,15
;   minCoolingSpeedSlowdown,20
;   increaseFanForCooling,0
;   minFanLayerTime,45
;   maxCoolingFanSpeed,100
;   increaseFanForBridging,0
;   bridgingFanSpeed,100
;   use5D,1
;   relativeEdistances,0
;   allowEaxisZeroing,1
;   independentExtruderAxes,0
;   includeM10123,0
;   stickySupport,1
;   applyToolheadOffsets,0
;   gcodeXoffset,0
;   gcodeYoffset,0
;   gcodeZoffset,0
;   overrideMachineDefinition,1
;   machineTypeOverride,0
;   strokeXoverride,180
;   strokeYoverride,180
;   strokeZoverride,180
;   originOffsetXoverride,0
;   originOffsetYoverride,0
;   originOffsetZoverride,0
;   homeXdirOverride,-1
;   homeYdirOverride,-1
;   homeZdirOverride,-1
;   flipXoverride,1
;   flipYoverride,1
;   flipZoverride,1
;   toolheadOffsets,0,0|0,0|0,0|0,0|0,0|0,0
;   overrideFirmwareConfiguration,0
;   firmwareTypeOverride,RepRap (Marlin/Repetier/Sprinter)
;   GPXconfigOverride,r2
;   baudRateOverride,57600
;   overridePrinterModels,0
;   printerModelsOverride
;   startingGcode,G28 ; home all axes,
;   layerChangeGcode,
;   retractionGcode,
;   toolChangeGcode,
;   endingGcode,M104 S0 ; turn off extruder,M140 S0 ; turn off bed,G91,G1 Z10 F100,G28 X Y,M84 ; disable motors
;   exportFileFormat,gcode
;   celebration,0
;   celebrationSong,Funky Town
;   postProcessing,
;   defaultSpeed,3600
;   outlineUnderspeed,0.7
;   solidInfillUnderspeed,1
;   supportUnderspeed,1
;   rapidXYspeed,6000
;   rapidZspeed,1002
;   minBridgingArea,50
;   bridgingExtraInflation,0
;   bridgingExtrusionMultiplier,1
;   bridgingSpeedMultiplier,1
;   useFixedBridgingAngle,0
;   fixedBridgingAngle,0
;   applyBridgingToPerimeters,0
;   filamentDiameters,1.75|1.75|1.75|1.75|1.75|1.75
;   filamentPricesPerKg,46|46|46|46|46|46
;   filamentDensities,1.25|1.25|1.25|1.25|1.25|1.25
;   useMinPrintHeight,0
;   minPrintHeight,0
;   useMaxPrintHeight,0
;   maxPrintHeight,0
;   useDiaphragm,0
;   diaphragmLayerInterval,20
;   robustSlicing,1
;   mergeAllIntoSolid,0
;   onlyRetractWhenCrossingOutline,0
;   retractBetweenLayers,1
;   useRetractionMinTravel,0
;   retractionMinTravel,3
;   retractWhileWiping,1
;   onlyWipeOutlines,1
;   avoidCrossingOutline,0
;   maxMovementDetourFactor,3
;   toolChangeRetractionDistance,12
;   toolChangeExtraRestartDistance,-0.5
;   toolChangeRetractionSpeed,600
;   externalThinWallType,0
;   internalThinWallType,2
;   thinWallAllowedOverlapPercentage,40
;   singleExtrusionMinLength,1
;   singleExtrusionMinPrintingWidthPercentage,50
;   singleExtrusionMaxPrintingWidthPercentage,200
;   singleExtrusionEndpointExtension,0.2
;   horizontalSizeCompensation,0
G90
M82
M106 S76
M140 S60
M190 S60
M104 S220 T0
M109 S220 T0
G28 ; home all axes
G92 E0
G1 E-1.0000 F1800
G1 Z0.510 F1002
; process Process1
; layer 1, Z = 0.210
T0
; tool H0.300 W0.600
; outer perimeter
G1 X42.807 Y45.606 F6000
G1 Z0.210 F1002
G1 E0.0000 F540
G92 E0
G1 X42.841 Y45.578 E0.0033 F1260
G1 X43.434 Y45.336 E0.0512
G1 X44.018 Y44.980 E0.1024
G1 X44.540 Y44.536 E0.1537
G1 X44.984 Y44.014 E0.2050
G1 X45.340 Y43.428 E0.2562
G1 X45.577 Y42.849 E0.3031
G1 X45.629 Y42.795 E0.3087
G1 X45.632 Y42.794 E0.3090
G1 X134.359 Y42.794 E6.9489
G1 X134.388 Y42.803 E6.9511
G1 X134.418 Y42.838 E6.9546
G1 X134.660 Y43.429 E7.0024
G1 X135.016 Y44.014 E7.0537
G1 X135.460 Y44.536 E7.1049
G1 X135.982 Y44.980 E7.1562
G1 X136.566 Y45.336 E7.2074
G1 X137.155 Y45.577 E7.2550
G1 X137.199 Y45.621 E7.2597
G1 X137.201 Y45.627 E7.2601
G1 X137.201 Y64.593 E8.6795
G1 X137.145 Y64.754 E8.6922
G1 X137.070 Y64.821 E8.6997
G1 X136.969 Y64.844 E8.7075
G1 X134.201 Y64.844 E8.9146
G1 X134.201 Y68.096 E9.1580
G1 X133.959 Y68.848 E9.2171
G1 X133.764 Y69.067 E9.2391
G1 X133.603 Y69.181 E9.2538
G1 X133.434 Y69.259 E9.2677
G1 X131.989 Y69.345 E9.3761
G1 X131.168 Y69.416 E9.4378
G1 X130.359 Y69.633 E9.5004
G1 X129.600 Y69.986 E9.5631
G1 X128.915 Y70.466 E9.6257
G1 X128.323 Y71.058 E9.6883
G1 X127.843 Y71.743 E9.7509
G1 X127.489 Y72.502 E9.8136
G1 X127.272 Y73.311 E9.8762
G1 X127.200 Y74.144 E9.9388
G1 X127.272 Y74.978 E10.0015
G1 X127.489 Y75.786 E10.0641
G1 X127.843 Y76.545 E10.1267
G1 X128.323 Y77.231 E10.1894
G1 X128.915 Y77.822 E10.2520
G1 X129.600 Y78.302 E10.3146
G1 X130.359 Y78.656 E10.3772
G1 X131.173 Y78.874 E10.4403
G1 X133.133 Y78.970 E10.5872
G1 X133.700 Y79.181 E10.6324
G1 X133.908 Y79.366 E10.6533
G1 X134.154 Y79.850 E10.6939
G1 X134.201 Y80.167 E10.7179
G1 X134.201 Y83.444 E10.9631
G1 X136.941 Y83.444 E11.1681
G1 X137.124 Y83.521 E11.1830
G1 X137.201 Y83.705 E11.1979
G1 X137.201 Y134.329 E14.9864
G1 X137.163 Y134.410 E14.9931
G1 X136.567 Y134.653 E15.0413
G1 X135.982 Y135.009 E15.0925
G1 X135.460 Y135.453 E15.1438
G1 X135.016 Y135.975 E15.1951
G1 X134.660 Y136.559 E15.2463
G1 X134.435 Y137.110 E15.2908
G1 X134.312 Y137.193 E15.3019
G1 X121.739 Y137.194 E16.2428
G1 X120.922 Y137.259 E16.3042
G1 X120.117 Y137.452 E16.3661
G1 X119.348 Y137.769 E16.4283
G1 X118.639 Y138.203 E16.4906
G1 X118.002 Y138.746 E16.5532
G1 X117.463 Y139.378 E16.6154
G1 X117.028 Y140.087 E16.6776
G1 X116.709 Y140.856 E16.7399
G1 X116.516 Y141.661 E16.8019
G1 X116.451 Y142.478 E16.8632
G1 X116.451 Y144.132 E16.9870
G1 X116.436 Y144.165 E16.9897
G1 X116.380 Y144.194 E16.9945
G1 X109.930 Y144.194 E17.4772
G1 X109.964 Y143.858 E17.5024
G1 X109.964 Y142.694 E17.5895
G1 X99.537 Y142.694 E18.3698
G1 X99.537 Y143.848 E18.4562
G1 X99.548 Y144.194 E18.4821
G1 X63.596 Y144.194 E21.1725
G1 X63.556 Y144.181 E21.1756
G1 X63.549 Y144.155 E21.1777
G1 X63.549 Y142.490 E21.3023
G1 X63.470 Y141.574 E21.3711
G1 X63.231 Y140.681 E21.4402
G1 X62.842 Y139.847 E21.5091
G1 X62.310 Y139.087 E21.5786
G1 X61.660 Y138.437 E21.6474
G1 X60.900 Y137.903 E21.7169
G1 X60.066 Y137.515 E21.7857
G1 X59.169 Y137.273 E21.8552
G1 X58.262 Y137.194 E21.9233
G1 X45.640 Y137.194 E22.8679
G1 X45.612 Y137.186 E22.8701
G1 X45.582 Y137.151 E22.8735
G1 X45.340 Y136.559 E22.9214
G1 X44.984 Y135.975 E22.9726
G1 X44.540 Y135.453 E23.0238
G1 X44.018 Y135.009 E23.0751
G1 X43.439 Y134.657 E23.1258
G1 X42.812 Y134.368 E23.1775
G1 X42.799 Y134.336 E23.1801
G1 X42.800 Y45.633 E29.8182
G1 X42.807 Y45.606 E29.8203
G92 E0
G1 E-1.0000 F1800
G1 Z0.510 F1002
G1 X87.927 Y87.523 F6000
G1 Z0.210 F1002
G1 E0.0000 F1800
G92 E0
G1 X87.208 Y88.379 E0.0837 F1260
G1 X86.890 Y89.205 E0.1499
G1 X86.798 Y90.255 E0.2287
G1 X86.966 Y91.077 E0.2915
G1 X87.215 Y91.617 E0.3360
G1 X87.924 Y92.461 E0.4185
G1 X88.632 Y92.900 E0.4809
G1 X89.422 Y93.163 E0.5432
G1 X89.967 Y93.211 E0.5841
G1 X90.581 Y93.163 E0.6302
G1 X91.601 Y92.792 E0.7115
G1 X92.098 Y92.439 E0.7571
G1 X92.773 Y91.634 E0.8357
G1 X93.036 Y91.061 E0.8829
G1 X93.198 Y90.280 E0.9426
G1 X93.172 Y89.420 E1.0070
G1 X92.793 Y88.382 E1.0897
G1 X92.073 Y87.523 E1.1735
G1 X91.179 Y87.007 E1.2508
G1 X91.078 Y86.956 E1.2593
G1 X89.745 Y86.791 E1.3598
G1 X88.893 Y86.966 E1.4249
G1 X87.927 Y87.523 E1.5083
G92 E0
G1 E-1.0000 F1800
G1 Z0.510 F1002
G1 X95.971 Y98.518 F6000
G1 Z0.210 F1002
G1 E0.0000 F1800
G92 E0
G1 X95.532 Y98.952 E0.0462 F1260
G1 X95.267 Y99.519 E0.0930
G1 X95.193 Y100.016 E0.1307
G1 X95.498 Y100.983 E0.2065
G1 X95.897 Y101.395 E0.2494
G1 X95.956 Y101.460 E0.2560
G1 X96.664 Y101.764 E0.3137
G1 X97.155 Y101.782 E0.3505
G1 X97.635 Y101.683 E0.3871
G1 X98.382 Y101.155 E0.4556
G1 X98.699 Y100.599 E0.5035
G1 X98.804 Y99.979 E0.5505
G1 X98.679 Y99.334 E0.5997
G1 X98.170 Y98.615 E0.6656
G1 X97.619 Y98.301 E0.7131
G1 X97.315 Y98.219 E0.7367
G1 X96.855 Y98.202 E0.7712
G1 X96.394 Y98.295 E0.8063
G1 X95.971 Y98.518 E0.8421
G92 E0
G1 E-1.0000 F1800
G1 Z0.510 F1002
; solid layer
G1 X99.164 Y100.012 F6000
G1 Z0.210 F1002
G1 E0.0000 F1800
G92 E0
G1 X134.811 Y135.660 E3.7727 F1800
G1 X134.723 Y135.763 E3.7829
G1 X134.475 Y136.172 E3.8187
G1 X99.037 Y100.734 E7.5692
G1 X98.728 Y101.274 E7.6157
G1 X134.197 Y136.742 E11.3694
G1 X134.160 Y136.833 E11.3768
G1 X133.439 Y136.833 E11.4307
G1 X98.276 Y101.670 E15.1521
G1 X97.781 Y102.021 E15.1975
G1 X97.779 Y102.021 E15.1977
G1 X132.591 Y136.833 E18.8820
G1 X131.742 Y136.833 E18.9455
G1 X97.047 Y102.138 E22.6174
G92 E0
G1 E-1.0000 F1800
G1 Z0.510 F1002
G1 X90.163 Y93.557 F6000
G1 Z0.210 F1002
G1 E0.0000 F1800
G92 E0
G1 X95.290 Y98.685 E0.5427 F1800
G1 X95.717 Y98.263 E0.5876
G1 X90.889 Y93.434 E1.0986
G1 X91.511 Y93.208 E1.1481
G1 X96.261 Y97.958 E1.6509
G1 X96.272 Y97.953 E1.6518
G1 X96.825 Y97.841 E1.6940
G1 X96.999 Y97.847 E1.7070
G1 X92.059 Y92.908 E2.2298
G1 X92.344 Y92.706 E2.2559
G1 X92.509 Y92.509 E2.2751
G1 X98.241 Y98.241 E2.8818
G1 X98.418 Y98.342 E2.8970
G1 X98.602 Y98.602 E2.9208
G1 X135.202 Y135.202 E6.7943
G1 X135.205 Y135.198 E6.7947
G1 X135.659 Y134.811 E6.8393
G1 X92.896 Y92.048 E11.3651
G1 X93.080 Y91.829 E11.3865
G1 X93.220 Y91.523 E11.4116
G1 X136.170 Y134.473 E15.9572
G1 X136.404 Y134.331 E15.9776
G1 X136.740 Y134.194 E16.0048
G1 X93.439 Y90.893 E20.5874
G1 X93.559 Y90.311 E20.6319
G1 X93.555 Y90.161 E20.6432
G1 X136.841 Y133.447 E25.2243
G1 X136.841 Y132.598 E25.2878
G1 X93.494 Y89.251 E29.8754
G92 E0
G1 E-1.0000 F1800
G1 Z0.510 F1002
G1 X129.620 Y78.708 F6000
G1 Z0.210 F1002
G1 E0.0000 F1800
G92 E0
G1 X133.841 Y82.929 E0.4467 F1800
G1 X133.841 Y82.081 E0.5102
G1 X130.946 Y79.186 E0.8166
G1 X131.117 Y79.232 E0.8299
G1 X131.878 Y79.269 E0.8868
G1 X133.841 Y81.232 E1.0946
G1 X133.841 Y80.384 E1.1581
G1 X132.770 Y79.313 E1.2714
G92 E0
G1 E-1.0000 F1800
G1 Z0.510 F1002
G1 X136.413 Y83.804 F6000
G1 Z0.210 F1002
G1 E0.0000 F1800
G92 E0
G1 X136.841 Y84.232 E0.0453 F1800
G1 X136.841 Y85.081 E0.1088
G1 X135.564 Y83.804 E0.2439
G1 X134.716 Y83.804 E0.3074
G1 X136.841 Y85.929 E0.5324
G92 E0
G1 E-1.0000 F1800
G1 Z0.510 F1002
G1 X133.947 Y43.154 F6000
G1 Z0.210 F1002
G1 E0.0000 F1800
G92 E0
G1 X134.306 Y43.514 E0.0381 F1800
G1 X134.338 Y43.591 E0.0444
G1 X134.723 Y44.226 E0.0999
G1 X135.205 Y44.791 E0.1555
G1 X135.770 Y45.273 E0.2110
G1 X136.403 Y45.658 E0.2665
G1 X136.483 Y45.691 E0.2730
G1 X136.841 Y46.048 E0.3108
G1 X136.841 Y46.897 E0.3743
G1 X133.098 Y43.154 E0.7704
G1 X132.249 Y43.154 E0.8339
G1 X136.841 Y47.745 E1.3198
G1 X136.841 Y48.594 E1.3833
G1 X131.401 Y43.154 E1.9590
G1 X130.552 Y43.154 E2.0225
G1 X136.841 Y49.442 E2.6880
G1 X136.841 Y50.291 E2.7515
G1 X129.704 Y43.154 E3.5068
G1 X128.855 Y43.154 E3.5703
G1 X136.841 Y51.139 E4.4154
G1 X136.841 Y51.988 E4.4789
G1 X128.007 Y43.154 E5.4138
G1 X127.158 Y43.154 E5.4773
G1 X136.841 Y52.836 E6.5020
G1 X136.841 Y53.685 E6.5655
G1 X126.310 Y43.154 E7.6801
G1 X125.461 Y43.154 E7.7436
G1 X136.841 Y54.534 E8.9479
G1 X136.841 Y55.382 E9.0114
G1 X124.613 Y43.154 E10.3055
G1 X123.764 Y43.154 E10.3690
G1 X136.841 Y56.231 E11.7530
G1 X136.841 Y57.079 E11.8165
G1 X122.916 Y43.154 E13.2902
G1 X122.067 Y43.154 E13.3537
G1 X136.841 Y57.928 E14.9173
G1 X136.841 Y58.776 E14.9808
G1 X121.219 Y43.154 E16.6341
G1 X120.370 Y43.154 E16.6976
G1 X136.841 Y59.625 E18.4408
G1 X136.841 Y60.473 E18.5043
G1 X119.522 Y43.154 E20.3372
G1 X118.673 Y43.154 E20.4007
G1 X136.841 Y61.322 E22.3235
G1 X136.841 Y62.170 E22.3870
G1 X117.825 Y43.154 E24.3996
G1 X116.976 Y43.154 E24.4631
G1 X136.841 Y63.019 E26.5654
G1 X136.841 Y63.868 E26.6289
G1 X116.127 Y43.154 E28.8211
G1 X115.279 Y43.154 E28.8846
G1 X136.609 Y64.484 E31.1420
G1 X135.760 Y64.484 E31.2055
G1 X114.430 Y43.154 E33.4629
G1 X113.582 Y43.154 E33.5264
G1 X134.912 Y64.484 E35.7838
G1 X134.063 Y64.484 E35.8473
G1 X112.733 Y43.154 E38.1047
G1 X111.885 Y43.154 E38.1682
G1 X133.841 Y65.110 E40.4919
G1 X133.841 Y65.959 E40.5554
G1 X111.036 Y43.154 E42.9689
G1 X110.188 Y43.154 E43.0324
G1 X133.841 Y66.807 E45.5357
G1 X133.841 Y67.656 E45.5992
G1 X109.339 Y43.154 E48.1923
G1 X108.491 Y43.154 E48.2558
G1 X133.728 Y68.391 E50.9267
G1 X133.640 Y68.665 E50.9483
G1 X133.523 Y68.797 E50.9614
G1 X133.422 Y68.868 E50.9707
G1 X133.377 Y68.889 E50.9744
G1 X107.642 Y43.154 E53.6980
G1 X106.794 Y43.154 E53.7615
G1 X132.588 Y68.948 E56.4914
G1 X131.962 Y68.986 E56.5383
G1 X131.792 Y69.001 E56.5511
G1 X105.945 Y43.154 E59.2865
G1 X105.097 Y43.154 E59.3500
G1 X131.025 Y69.082 E62.0941
G1 X130.355 Y69.261 E62.1459
G1 X104.248 Y43.154 E64.9089
G1 X103.400 Y43.154 E64.9724
G1 X129.760 Y69.515 E67.7623
G1 X129.420 Y69.673 E67.7904
G1 X129.214 Y69.817 E67.8092
G1 X102.551 Y43.154 E70.6310
G1 X101.702 Y43.154 E70.6945
G1 X128.715 Y70.167 E73.5534
G1 X128.683 Y70.190 E73.5563
G1 X128.286 Y70.586 E73.5983
G1 X100.854 Y43.154 E76.5015
G1 X100.005 Y43.154 E76.5650
G1 X127.894 Y71.043 E79.5166
G1 X127.545 Y71.542 E79.5622
G1 X99.157 Y43.154 E82.5666
G1 X98.308 Y43.154 E82.6301
G1 X127.271 Y72.117 E85.6953
G1 X127.149 Y72.378 E85.7169
G1 X127.051 Y72.745 E85.7453
G1 X97.460 Y43.154 E88.8771
G1 X96.611 Y43.154 E88.9406
