; G-Code generated by Simplify3D(R) Version 4.0.0
; Sep 7, 2021 at 9:06:04 PM
; Settings Summary
;   processName,Process1
;   applyToModels,parte1
;   profileName,prusa i3 (modified)
;   profileVersion,2020-04-28 11:32:13
;   baseProfile,Default (modified)
;   printMaterial,PLA
;   printQuality,High
;   printExtruders,
;   extruderName,Primary Extruder
;   extruderToolheadNumber,0
;   extruderDiameter,0.4
;   extruderAutoWidth,0
;   extruderWidth,0.6
;   extrusionMultiplier,1
;   extruderUseRetract,1
;   extruderRetractionDistance,1
;   extruderExtraRestartDistance,0
;   extruderRetractionZLift,0.3
;   extruderRetractionSpeed,1800
;   extruderUseCoasting,0
;   extruderCoastingDistance,0.2
;   extruderUseWipe,0
;   extruderWipeDistance,5
;   primaryExtruder,0
;   layerHeight,0.3
;   topSolidLayers,1
;   bottomSolidLayers,3
;   perimeterOutlines,1
;   printPerimetersInsideOut,1
;   startPointOption,2
;   startPointOriginX,0
;   startPointOriginY,0
;   sequentialIslands,0
;   spiralVaseMode,0
;   firstLayerHeightPercentage,70
;   firstLayerWidthPercentage,100
;   firstLayerUnderspeed,0.5
;   useRaft,0
;   raftExtruder,0
;   raftTopLayers,3
;   raftBaseLayers,2
;   raftOffset,3
;   raftSeparationDistance,0.14
;   raftTopInfill,100
;   aboveRaftSpeedMultiplier,0.3
;   useSkirt,0
;   skirtExtruder,0
;   skirtLayers,1
;   skirtOutlines,1
;   skirtOffset,2.5
;   usePrimePillar,0
;   primePillarExtruder,999
;   primePillarWidth,12
;   primePillarLocation,7
;   primePillarSpeedMultiplier,1
;   useOozeShield,0
;   oozeShieldExtruder,999
;   oozeShieldOffset,2
;   oozeShieldOutlines,1
;   oozeShieldSidewallShape,1
;   oozeShieldSidewallAngle,30
;   oozeShieldSpeedMultiplier,1
;   infillExtruder,0
;   internalInfillPattern,Rectilinear
;   externalInfillPattern,Rectilinear
;   infillPercentage,15
;   outlineOverlapPercentage,40
;   infillExtrusionWidthPercentage,100
;   minInfillLength,5
;   infillLayerInterval,1
;   internalInfillAngles,45,-45
;   overlapInternalInfillAngles,0
;   externalInfillAngles,45,-45
;   generateSupport,1
;   supportExtruder,0
;   supportInfillPercentage,40
;   supportExtraInflation,0
;   supportBaseLayers,0
;   denseSupportExtruder,0
;   denseSupportLayers,0
;   denseSupportInfillPercentage,70
;   supportLayerInterval,1
;   supportHorizontalPartOffset,0.3
;   supportUpperSeparationLayers,1
;   supportLowerSeparationLayers,1
;   supportType,0
;   supportGridSpacing,4
;   maxOverhangAngle,45
;   supportAngles,0
;   temperatureName,Primary Extruder,cama
;   temperatureNumber,0,0
;   temperatureSetpointCount,2,1
;   temperatureSetpointLayers,1,2,1
;   temperatureSetpointTemperatures,220,210,60
;   temperatureStabilizeAtStartup,1,1
;   temperatureHeatedBed,0,1
;   temperatureRelayBetweenLayers,0,0
;   temperatureRelayBetweenLoops,0,0
;   fanLayers,1,2
;   fanSpeeds,30,40
;   blipFanToFullPower,0
;   adjustSpeedForCooling,1
;   minSpeedLayerTime,15
;   minCoolingSpeedSlowdown,20
;   increaseFanForCooling,0
;   minFanLayerTime,45
;   maxCoolingFanSpeed,100
;   increaseFanForBridging,0
;   bridgingFanSpeed,100
;   use5D,1
;   relativeEdistances,0
;   allowEaxisZeroing,1
;   independentExtruderAxes,0
;   includeM10123,0
;   stickySupport,1
;   applyToolheadOffsets,0
;   gcodeXoffset,0
;   gcodeYoffset,0
;   gcodeZoffset,0
;   overrideMachineDefinition,1
;   machineTypeOverride,0
;   strokeXoverride,180
;   strokeYoverride,180
;   strokeZoverride,180
;   originOffsetXoverride,0
;   originOffsetYoverride,0
;   originOffsetZoverride,0
;   homeXdirOverride,-1
;   homeYdirOverride,-1
;   homeZdirOverride,-1
;   flipXoverride,1
;   flipYoverride,1
;   flipZoverride,1
;   toolheadOffsets,0,0|0,0|0,0|0,0|0,0|0,0
;   overrideFirmwareConfiguration,0
;   firmwareTypeOverride,RepRap (Marlin/Repetier/Sprinter)
;   GPXconfigOverride,r2
;   baudRateOverride,57600
;   overridePrinterModels,0
;   printerModelsOverride
;   startingGcode,G28 ; home all axes,
;   layerChangeGcode,
;   retractionGcode,
;   toolChangeGcode,
;   endingGcode,M104 S0 ; turn off extruder,M140 S0 ; turn off bed,G91,G1 Z10 F100,G28 X Y,M84 ; disable motors
;   exportFileFormat,gcode
;   celebration,0
;   celebrationSong,Funky Town
;   postProcessing,
;   defaultSpeed,3600
;   outlineUnderspeed,0.7
;   solidInfillUnderspeed,1
;   supportUnderspeed,1
;   rapidXYspeed,6000
;   rapidZspeed,1002
;   minBridgingArea,50
;   bridgingExtraInflation,0
;   bridgingExtrusionMultiplier,1
;   bridgingSpeedMultiplier,1
;   useFixedBridgingAngle,0
;   fixedBridgingAngle,0
;   applyBridgingToPerimeters,0
;   filamentDiameters,1.75|1.75|1.75|1.75|1.75|1.75
;   filamentPricesPerKg,46|46|46|46|46|46
;   filamentDensities,1.25|1.25|1.25|1.25|1.25|1.25
;   useMinPrintHeight,0
;   minPrintHeight,0
;   useMaxPrintHeight,0
;   maxPrintHeight,0
;   useDiaphragm,0
;   diaphragmLayerInterval,20
;   robustSlicing,1
;   mergeAllIntoSolid,0
;   onlyRetractWhenCrossingOutline,0
;   retractBetweenLayers,1
;   useRetractionMinTravel,0
;   retractionMinTravel,3
;   retractWhileWiping,1
;   onlyWipeOutlines,1
;   avoidCrossingOutline,0
;   maxMovementDetourFactor,3
;   toolChangeRetractionDistance,12
;   toolChangeExtraRestartDistance,-0.5
;   toolChangeRetractionSpeed,600
;   externalThinWallType,0
;   internalThinWallType,2
;   thinWallAllowedOverlapPercentage,40
;   singleExtrusionMinLength,1
;   singleExtrusionMinPrintingWidthPercentage,50
;   singleExtrusionMaxPrintingWidthPercentage,200
;   singleExtrusionEndpointExtension,0.2
;   horizontalSizeCompensation,0
G90
M82
M106 S76
M140 S60
M190 S60
M104 S220 T0
M109 S220 T0
G28 ; home all axes
G92 E0
G1 E-1.0000 F1800
G1 Z0.510 F1002
; process Process1
; layer 1, Z = 0.210
T0
; tool H0.300 W0.600
; outer perimeter
G1 X52.921 Y56.776 F6000
G1 Z0.210 F1002
G1 E0.0000 F540
G92 E0
G1 X53.248 Y56.512 E0.0315 F1260
G1 X53.986 Y56.187 E0.0918
G1 X54.651 Y55.767 E0.1507
G1 X55.247 Y55.254 E0.2095
G1 X55.761 Y54.658 E0.2684
G1 X56.179 Y53.995 E0.3270
G1 X56.561 Y53.154 E0.3962
G1 X56.915 Y52.861 E0.4306
G1 X57.186 Y52.806 E0.4512
G1 X68.262 Y52.806 E1.2801
G1 X69.169 Y52.727 E1.3483
G1 X70.062 Y52.487 E1.4174
G1 X70.895 Y52.099 E1.4862
G1 X71.652 Y51.570 E1.5553
G1 X72.306 Y50.918 E1.6244
G1 X72.840 Y50.157 E1.6940
G1 X73.229 Y49.324 E1.7628
G1 X73.470 Y48.426 E1.8323
G1 X73.549 Y47.524 E1.9001
G1 X73.549 Y45.854 E2.0251
G1 X73.561 Y45.817 E2.0280
G1 X73.595 Y45.806 E2.0307
G1 X109.183 Y45.806 E4.6939
G1 X109.171 Y47.306 E4.8062
G1 X120.320 Y47.306 E5.6405
G1 X120.316 Y45.806 E5.7527
G1 X126.404 Y45.806 E6.2083
G1 X126.443 Y45.819 E6.2114
G1 X126.451 Y45.846 E6.2134
G1 X126.451 Y47.519 E6.3386
G1 X126.530 Y48.426 E6.4068
G1 X126.769 Y49.319 E6.4759
G1 X127.158 Y50.152 E6.5447
G1 X127.687 Y50.909 E6.6138
G1 X128.343 Y51.567 E6.6834
G1 X129.100 Y52.097 E6.7525
G1 X129.933 Y52.485 E6.8213
G1 X130.830 Y52.727 E6.8908
G1 X131.733 Y52.806 E6.9586
G1 X142.813 Y52.806 E7.7878
G1 X143.088 Y52.863 E7.8088
G1 X143.438 Y53.154 E7.8429
G1 X143.821 Y53.995 E7.9121
G1 X144.239 Y54.658 E7.9707
G1 X144.753 Y55.254 E8.0296
G1 X145.349 Y55.767 E8.0884
G1 X146.012 Y56.186 E8.1471
G1 X146.874 Y56.577 E8.2180
G1 X147.033 Y56.718 E8.2339
G1 X147.150 Y56.933 E8.2522
G1 X147.201 Y57.192 E8.2719
G1 X147.201 Y142.819 E14.6798
G1 X147.147 Y143.086 E14.7003
G1 X146.853 Y143.444 E14.7349
G1 X146.012 Y143.825 E14.8040
G1 X145.349 Y144.244 E14.8627
G1 X144.753 Y144.757 E14.9215
G1 X144.239 Y145.353 E14.9804
G1 X143.820 Y146.019 E15.0393
G1 X143.488 Y146.771 E15.1008
G1 X143.375 Y146.948 E15.1165
G1 X143.042 Y147.170 E15.1465
G1 X142.820 Y147.206 E15.1633
G1 X57.168 Y147.206 E21.5731
G1 X57.068 Y147.198 E21.5806
G1 X56.813 Y147.095 E21.6012
G1 X56.590 Y146.911 E21.6228
G1 X56.515 Y146.778 E21.6342
G1 X56.180 Y146.019 E21.6963
G1 X55.761 Y145.353 E21.7552
G1 X55.247 Y144.757 E21.8141
G1 X54.651 Y144.244 E21.8729
G1 X53.986 Y143.824 E21.9318
G1 X53.235 Y143.495 E21.9931
G1 X53.042 Y143.370 E22.0103
G1 X52.920 Y143.230 E22.0243
G1 X52.881 Y143.166 E22.0299
G1 X52.799 Y142.814 E22.0569
G1 X52.799 Y57.182 E28.4652
G1 X52.821 Y57.007 E28.4784
G1 X52.886 Y56.835 E28.4921
G1 X52.921 Y56.776 E28.4973
G92 E0
G1 E-1.0000 F1800
G1 Z0.510 F1002
G1 X55.233 Y57.095 F6000
G1 Z0.210 F1002
G1 E0.0000 F1800
G92 E0
G1 X55.199 Y57.493 E0.0299 F1260
G1 X55.199 Y142.529 E6.3936
G1 X55.332 Y143.289 E6.4513
G1 X55.621 Y143.824 E6.4969
G1 X56.012 Y144.263 E6.5408
G1 X56.360 Y144.507 E6.5727
G1 X57.089 Y144.771 E6.6307
G1 X57.349 Y144.794 E6.6502
G1 X57.746 Y145.268 E6.6965
G1 X58.262 Y145.585 E6.7418
G1 X58.825 Y145.771 E6.7862
G1 X59.218 Y145.806 E6.8157
G1 X70.234 Y145.806 E7.6401
G1 X70.979 Y145.674 E7.6967
G1 X71.369 Y145.493 E7.7289
G1 X71.833 Y145.126 E7.7732
G1 X72.085 Y144.806 E7.8037
G1 X142.527 Y144.806 E13.0752
G1 X143.284 Y144.672 E13.1327
G1 X143.818 Y144.384 E13.1781
G1 X144.258 Y143.992 E13.2222
G1 X144.502 Y143.645 E13.2540
G1 X144.766 Y142.918 E13.3118
G1 X144.801 Y142.519 E13.3419
G1 X144.801 Y57.480 E19.7058
G1 X144.668 Y56.723 E19.7633
G1 X144.379 Y56.188 E19.8088
G1 X143.988 Y55.749 E19.8528
G1 X143.640 Y55.505 E19.8846
G1 X142.911 Y55.240 E19.9426
G1 X142.514 Y55.206 E19.9725
G1 X129.533 Y55.206 E20.9439
G1 X128.565 Y55.123 E21.0166
G1 X127.644 Y54.885 E21.0878
G1 X126.764 Y54.491 E21.1599
G1 X125.968 Y53.957 E21.2317
G1 X125.272 Y53.298 E21.3034
G1 X124.700 Y52.537 E21.3746
G1 X124.260 Y51.685 E21.4464
G1 X123.880 Y50.492 E21.5401
G1 X123.545 Y49.744 E21.6014
G1 X122.810 Y48.921 E21.6840
G1 X121.854 Y48.393 E21.7657
G1 X121.300 Y48.251 E21.8085
G1 X120.764 Y48.206 E21.8488
G1 X79.224 Y48.206 E24.9574
G1 X78.170 Y48.385 E25.0374
G1 X77.639 Y48.623 E25.0809
G1 X76.784 Y49.305 E25.1628
G1 X76.202 Y50.232 E25.2447
G1 X75.740 Y51.685 E25.3588
G1 X75.300 Y52.537 E25.4306
G1 X74.721 Y53.306 E25.5026
G1 X74.024 Y53.964 E25.5743
G1 X73.227 Y54.496 E25.6461
G1 X72.351 Y54.886 E25.7178
G1 X71.430 Y55.124 E25.7890
G1 X70.461 Y55.206 E25.8617
G1 X57.473 Y55.206 E26.8337
G1 X56.719 Y55.338 E26.8910
G1 X56.181 Y55.628 E26.9367
G1 X55.742 Y56.019 E26.9807
G1 X55.498 Y56.367 E27.0126
G1 X55.233 Y57.095 E27.0705
G92 E0
G1 E-1.0000 F1800
G1 Z0.510 F1002
; solid layer
G1 X120.836 Y46.166 F6000
G1 Z0.210 F1002
G1 E0.0000 F1800
G92 E0
G1 X129.513 Y54.842 E0.9183 F1800
G1 X129.549 Y54.846 E0.9209
G1 X130.365 Y54.846 E0.9820
G1 X121.685 Y46.166 E1.9006
G92 E0
G1 E-1.0000 F1800
G1 Z0.510 F1002
G1 X125.928 Y46.166 F6000
G1 Z0.210 F1002
G1 E0.0000 F1800
G92 E0
G1 X126.091 Y46.329 E0.0173 F1800
G1 X126.091 Y47.178 E0.0808
G1 X125.079 Y46.166 E0.1879
G1 X124.231 Y46.166 E0.2514
G1 X126.138 Y48.074 E0.4533
G1 X126.175 Y48.489 E0.4845
G1 X126.346 Y49.130 E0.5341
G1 X123.382 Y46.166 E0.8478
G1 X122.534 Y46.166 E0.9113
G1 X127.181 Y50.814 E1.4032
G1 X127.410 Y51.141 E1.4330
G1 X128.111 Y51.843 E1.5073
G1 X128.445 Y52.077 E1.5378
G1 X131.213 Y54.846 E1.8308
G1 X132.062 Y54.846 E1.8943
G1 X130.125 Y52.909 E2.0992
G1 X130.767 Y53.082 E2.1489
G1 X131.183 Y53.119 E2.1802
G1 X132.910 Y54.846 E2.3629
G1 X133.759 Y54.846 E2.4265
G1 X132.079 Y53.166 E2.6043
G1 X132.927 Y53.166 E2.6678
G1 X134.607 Y54.846 E2.8456
G1 X135.456 Y54.846 E2.9091
G1 X133.776 Y53.166 E3.0869
G1 X134.624 Y53.166 E3.1504
G1 X136.304 Y54.846 E3.3282
G1 X137.153 Y54.846 E3.3917
G1 X135.473 Y53.166 E3.5695
G1 X136.321 Y53.166 E3.6330
G1 X138.002 Y54.846 E3.8108
G1 X138.850 Y54.846 E3.8743
G1 X137.170 Y53.166 E4.0522
G1 X138.019 Y53.166 E4.1157
G1 X139.699 Y54.846 E4.2935
G1 X140.547 Y54.846 E4.3570
G1 X138.867 Y53.166 E4.5348
G1 X139.716 Y53.166 E4.5983
G1 X141.396 Y54.846 E4.7761
G1 X142.244 Y54.846 E4.8396
G1 X140.564 Y53.166 E5.0174
G1 X141.413 Y53.166 E5.0809
G1 X143.214 Y54.967 E5.2716
G1 X143.807 Y55.183 E5.3188
G1 X144.229 Y55.478 E5.3573
G1 X144.676 Y55.980 E5.4076
G1 X145.013 Y56.603 E5.4606
G1 X145.047 Y56.800 E5.4756
G1 X146.841 Y58.594 E5.6654
G1 X146.841 Y57.746 E5.7289
G1 X145.184 Y56.088 E5.9043
G1 X145.134 Y56.057 E5.9087
G1 X144.498 Y55.509 E5.9715
G1 X143.949 Y54.873 E6.0344
G1 X143.916 Y54.821 E6.0390
G1 X142.261 Y53.166 E6.2141
G92 E0
G1 E-1.0000 F1800
G1 Z0.510 F1002
G1 X145.161 Y57.763 F6000
G1 Z0.210 F1002
G1 E0.0000 F1800
G92 E0
G1 X146.841 Y59.443 E0.1778 F1800
G1 X146.841 Y60.291 E0.2413
G1 X145.161 Y58.611 E0.4191
G1 X145.161 Y59.460 E0.4826
G1 X146.841 Y61.140 E0.6604
G1 X146.841 Y61.988 E0.7239
G1 X145.161 Y60.308 E0.9017
G1 X145.161 Y61.157 E0.9652
G1 X146.841 Y62.837 E1.1430
G1 X146.841 Y63.685 E1.2065
G1 X145.161 Y62.005 E1.3843
G1 X145.161 Y62.854 E1.4478
G1 X146.841 Y64.534 E1.6256
G1 X146.841 Y65.382 E1.6891
G1 X145.161 Y63.702 E1.8669
G1 X145.161 Y64.551 E1.9304
G1 X146.841 Y66.231 E2.1082
G1 X146.841 Y67.079 E2.1717
G1 X145.161 Y65.399 E2.3495
G1 X145.161 Y66.248 E2.4130
G1 X146.841 Y67.928 E2.5908
G1 X146.841 Y68.776 E2.6543
G1 X145.161 Y67.096 E2.8321
G1 X145.161 Y67.945 E2.8956
G1 X146.841 Y69.625 E3.0734
G1 X146.841 Y70.473 E3.1369
G1 X145.161 Y68.793 E3.3147
G1 X145.161 Y69.642 E3.3782
G1 X146.841 Y71.322 E3.5560
G1 X146.841 Y72.171 E3.6195
G1 X145.161 Y70.491 E3.7973
G1 X145.161 Y71.339 E3.8608
G1 X146.841 Y73.019 E4.0386
G1 X146.841 Y73.868 E4.1021
G1 X145.161 Y72.188 E4.2799
G1 X145.161 Y73.036 E4.3434
G1 X146.841 Y74.716 E4.5212
G1 X146.841 Y75.565 E4.5847
G1 X145.161 Y73.885 E4.7625
G1 X145.161 Y74.733 E4.8260
G1 X146.841 Y76.413 E5.0038
G1 X146.841 Y77.262 E5.0673
G1 X145.161 Y75.582 E5.2451
G1 X145.161 Y76.430 E5.3086
G1 X146.841 Y78.110 E5.4864
G1 X146.841 Y78.959 E5.5499
G1 X145.161 Y77.279 E5.7277
G1 X145.161 Y78.127 E5.7912
G1 X146.841 Y79.807 E5.9690
G1 X146.841 Y80.656 E6.0325
G1 X145.161 Y78.976 E6.2103
G1 X145.161 Y79.824 E6.2738
G1 X146.841 Y81.504 E6.4516
G1 X146.841 Y82.353 E6.5151
G1 X145.161 Y80.673 E6.6929
G1 X145.161 Y81.521 E6.7564
G1 X146.841 Y83.201 E6.9342
G1 X146.841 Y84.050 E6.9977
G1 X145.161 Y82.370 E7.1755
G1 X145.161 Y83.218 E7.2390
G1 X146.841 Y84.898 E7.4168
G1 X146.841 Y85.747 E7.4803
G1 X145.161 Y84.067 E7.6581
G1 X145.161 Y84.915 E7.7216
G1 X146.841 Y86.595 E7.8994
G1 X146.841 Y87.444 E7.9629
G1 X145.161 Y85.764 E8.1407
G1 X145.161 Y86.613 E8.2042
G1 X146.841 Y88.293 E8.3820
G1 X146.841 Y89.141 E8.4455
G1 X145.161 Y87.461 E8.6233
G1 X145.161 Y88.310 E8.6868
G1 X146.841 Y89.990 E8.8646
G1 X146.841 Y90.838 E8.9281
G1 X145.161 Y89.158 E9.1059
G1 X145.161 Y90.007 E9.1694
G1 X146.841 Y91.687 E9.3472
G1 X146.841 Y92.535 E9.4107
G1 X145.161 Y90.855 E9.5885
G1 X145.161 Y91.704 E9.6520
G1 X146.841 Y93.384 E9.8298
G1 X146.841 Y94.232 E9.8933
G1 X145.161 Y92.552 E10.0711
G1 X145.161 Y93.401 E10.1346
G1 X146.841 Y95.081 E10.3124
G1 X146.841 Y95.929 E10.3759
G1 X145.161 Y94.249 E10.5537
G1 X145.161 Y95.098 E10.6172
G1 X146.841 Y96.778 E10.7950
G1 X146.841 Y97.626 E10.8585
G1 X145.161 Y95.946 E11.0363
G1 X145.161 Y96.795 E11.0998
G1 X146.841 Y98.475 E11.2776
G1 X146.841 Y99.323 E11.3411
G1 X145.161 Y97.643 E11.5189
G1 X145.161 Y98.492 E11.5824
G1 X146.841 Y100.172 E11.7602
G1 X146.841 Y101.020 E11.8237
G1 X145.161 Y99.340 E12.0015
G1 X145.161 Y100.189 E12.0650
G1 X146.841 Y101.869 E12.2428
G1 X146.841 Y102.718 E12.3063
G1 X145.161 Y101.038 E12.4841
G1 X145.161 Y101.886 E12.5476
G1 X146.841 Y103.566 E12.7254
G1 X146.841 Y104.415 E12.7889
G1 X145.161 Y102.735 E12.9667
G1 X145.161 Y103.583 E13.0302
G1 X146.841 Y105.263 E13.2080
G1 X146.841 Y106.112 E13.2715
G1 X145.161 Y104.432 E13.4493
G1 X145.161 Y105.280 E13.5128
G1 X146.841 Y106.960 E13.6906
G1 X146.841 Y107.809 E13.7541
G1 X145.161 Y106.129 E13.9319
G1 X145.161 Y106.977 E13.9954
G1 X146.841 Y108.657 E14.1732
G1 X146.841 Y109.506 E14.2367
