; G-Code generated by Simplify3D(R) Version 4.0.0
; Sep 7, 2021 at 9:11:44 PM
; Settings Summary
;   processName,Process1
;   applyToModels,parte4
;   profileName,prusa i3 (modified)
;   profileVersion,2020-04-28 11:32:13
;   baseProfile,Default (modified)
;   printMaterial,PLA
;   printQuality,High
;   printExtruders,
;   extruderName,Primary Extruder
;   extruderToolheadNumber,0
;   extruderDiameter,0.4
;   extruderAutoWidth,0
;   extruderWidth,0.6
;   extrusionMultiplier,1
;   extruderUseRetract,1
;   extruderRetractionDistance,1
;   extruderExtraRestartDistance,0
;   extruderRetractionZLift,0.3
;   extruderRetractionSpeed,1800
;   extruderUseCoasting,0
;   extruderCoastingDistance,0.2
;   extruderUseWipe,0
;   extruderWipeDistance,5
;   primaryExtruder,0
;   layerHeight,0.3
;   topSolidLayers,1
;   bottomSolidLayers,3
;   perimeterOutlines,1
;   printPerimetersInsideOut,1
;   startPointOption,2
;   startPointOriginX,0
;   startPointOriginY,0
;   sequentialIslands,0
;   spiralVaseMode,0
;   firstLayerHeightPercentage,70
;   firstLayerWidthPercentage,100
;   firstLayerUnderspeed,0.5
;   useRaft,0
;   raftExtruder,0
;   raftTopLayers,3
;   raftBaseLayers,2
;   raftOffset,3
;   raftSeparationDistance,0.14
;   raftTopInfill,100
;   aboveRaftSpeedMultiplier,0.3
;   useSkirt,0
;   skirtExtruder,0
;   skirtLayers,1
;   skirtOutlines,1
;   skirtOffset,2.5
;   usePrimePillar,0
;   primePillarExtruder,999
;   primePillarWidth,12
;   primePillarLocation,7
;   primePillarSpeedMultiplier,1
;   useOozeShield,0
;   oozeShieldExtruder,999
;   oozeShieldOffset,2
;   oozeShieldOutlines,1
;   oozeShieldSidewallShape,1
;   oozeShieldSidewallAngle,30
;   oozeShieldSpeedMultiplier,1
;   infillExtruder,0
;   internalInfillPattern,Rectilinear
;   externalInfillPattern,Rectilinear
;   infillPercentage,15
;   outlineOverlapPercentage,40
;   infillExtrusionWidthPercentage,100
;   minInfillLength,5
;   infillLayerInterval,1
;   internalInfillAngles,45,-45
;   overlapInternalInfillAngles,0
;   externalInfillAngles,45,-45
;   generateSupport,1
;   supportExtruder,0
;   supportInfillPercentage,40
;   supportExtraInflation,0
;   supportBaseLayers,0
;   denseSupportExtruder,0
;   denseSupportLayers,0
;   denseSupportInfillPercentage,70
;   supportLayerInterval,1
;   supportHorizontalPartOffset,0.3
;   supportUpperSeparationLayers,1
;   supportLowerSeparationLayers,1
;   supportType,0
;   supportGridSpacing,4
;   maxOverhangAngle,45
;   supportAngles,0
;   temperatureName,Primary Extruder,cama
;   temperatureNumber,0,0
;   temperatureSetpointCount,2,1
;   temperatureSetpointLayers,1,2,1
;   temperatureSetpointTemperatures,220,210,60
;   temperatureStabilizeAtStartup,1,1
;   temperatureHeatedBed,0,1
;   temperatureRelayBetweenLayers,0,0
;   temperatureRelayBetweenLoops,0,0
;   fanLayers,1,2
;   fanSpeeds,30,40
;   blipFanToFullPower,0
;   adjustSpeedForCooling,1
;   minSpeedLayerTime,15
;   minCoolingSpeedSlowdown,20
;   increaseFanForCooling,0
;   minFanLayerTime,45
;   maxCoolingFanSpeed,100
;   increaseFanForBridging,0
;   bridgingFanSpeed,100
;   use5D,1
;   relativeEdistances,0
;   allowEaxisZeroing,1
;   independentExtruderAxes,0
;   includeM10123,0
;   stickySupport,1
;   applyToolheadOffsets,0
;   gcodeXoffset,0
;   gcodeYoffset,0
;   gcodeZoffset,0
;   overrideMachineDefinition,1
;   machineTypeOverride,0
;   strokeXoverride,180
;   strokeYoverride,180
;   strokeZoverride,180
;   originOffsetXoverride,0
;   originOffsetYoverride,0
;   originOffsetZoverride,0
;   homeXdirOverride,-1
;   homeYdirOverride,-1
;   homeZdirOverride,-1
;   flipXoverride,1
;   flipYoverride,1
;   flipZoverride,1
;   toolheadOffsets,0,0|0,0|0,0|0,0|0,0|0,0
;   overrideFirmwareConfiguration,0
;   firmwareTypeOverride,RepRap (Marlin/Repetier/Sprinter)
;   GPXconfigOverride,r2
;   baudRateOverride,57600
;   overridePrinterModels,0
;   printerModelsOverride
;   startingGcode,G28 ; home all axes,
;   layerChangeGcode,
;   retractionGcode,
;   toolChangeGcode,
;   endingGcode,M104 S0 ; turn off extruder,M140 S0 ; turn off bed,G91,G1 Z10 F100,G28 X Y,M84 ; disable motors
;   exportFileFormat,gcode
;   celebration,0
;   celebrationSong,Funky Town
;   postProcessing,
;   defaultSpeed,3600
;   outlineUnderspeed,0.7
;   solidInfillUnderspeed,1
;   supportUnderspeed,1
;   rapidXYspeed,6000
;   rapidZspeed,1002
;   minBridgingArea,50
;   bridgingExtraInflation,0
;   bridgingExtrusionMultiplier,1
;   bridgingSpeedMultiplier,1
;   useFixedBridgingAngle,0
;   fixedBridgingAngle,0
;   applyBridgingToPerimeters,0
;   filamentDiameters,1.75|1.75|1.75|1.75|1.75|1.75
;   filamentPricesPerKg,46|46|46|46|46|46
;   filamentDensities,1.25|1.25|1.25|1.25|1.25|1.25
;   useMinPrintHeight,0
;   minPrintHeight,0
;   useMaxPrintHeight,0
;   maxPrintHeight,0
;   useDiaphragm,0
;   diaphragmLayerInterval,20
;   robustSlicing,1
;   mergeAllIntoSolid,0
;   onlyRetractWhenCrossingOutline,0
;   retractBetweenLayers,1
;   useRetractionMinTravel,0
;   retractionMinTravel,3
;   retractWhileWiping,1
;   onlyWipeOutlines,1
;   avoidCrossingOutline,0
;   maxMovementDetourFactor,3
;   toolChangeRetractionDistance,12
;   toolChangeExtraRestartDistance,-0.5
;   toolChangeRetractionSpeed,600
;   externalThinWallType,0
;   internalThinWallType,2
;   thinWallAllowedOverlapPercentage,40
;   singleExtrusionMinLength,1
;   singleExtrusionMinPrintingWidthPercentage,50
;   singleExtrusionMaxPrintingWidthPercentage,200
;   singleExtrusionEndpointExtension,0.2
;   horizontalSizeCompensation,0
G90
M82
M106 S76
M140 S60
M190 S60
M104 S220 T0
M109 S220 T0
G28 ; home all axes
G92 E0
G1 E-1.0000 F1800
G1 Z0.510 F1002
; process Process1
; layer 1, Z = 0.210
T0
; tool H0.300 W0.600
; outer perimeter
G1 X42.993 Y43.177 F6000
G1 Z0.210 F1002
G1 E0.0000 F540
G92 E0
G1 X43.120 Y43.075 E0.0122 F1260
G1 X43.989 Y42.680 E0.0836
G1 X44.652 Y42.262 E0.1423
G1 X45.248 Y41.748 E0.2012
G1 X45.762 Y41.152 E0.2601
G1 X46.181 Y40.487 E0.3188
G1 X46.543 Y39.665 E0.3861
G1 X46.595 Y39.585 E0.3932
G1 X46.710 Y39.469 E0.4055
G1 X46.906 Y39.352 E0.4225
G1 X47.023 Y39.317 E0.4317
G1 X47.174 Y39.300 E0.4430
G1 X132.831 Y39.300 E6.8532
G1 X132.929 Y39.308 E6.8606
G1 X133.254 Y39.439 E6.8868
G1 X133.394 Y39.576 E6.9015
G1 X133.821 Y40.490 E6.9769
G1 X134.238 Y41.152 E7.0355
G1 X134.752 Y41.748 E7.0944
G1 X135.348 Y42.262 E7.1533
G1 X136.013 Y42.681 E7.2121
G1 X136.821 Y43.036 E7.2781
G1 X137.009 Y43.179 E7.2958
G1 X137.063 Y43.245 E7.3022
G1 X137.164 Y43.449 E7.3192
G1 X137.200 Y43.680 E7.3367
G1 X137.200 Y129.323 E13.7458
G1 X137.161 Y129.567 E13.7643
G1 X137.129 Y129.647 E13.7708
G1 X137.042 Y129.776 E13.7824
G1 X136.814 Y129.966 E13.8047
G1 X136.013 Y130.319 E13.8702
G1 X135.348 Y130.738 E13.9290
G1 X134.752 Y131.252 E13.9879
G1 X134.238 Y131.848 E14.0468
G1 X133.819 Y132.513 E14.1056
G1 X133.463 Y133.319 E14.1715
G1 X133.279 Y133.541 E14.1931
G1 X133.157 Y133.622 E14.2041
G1 X132.935 Y133.692 E14.2215
G1 X132.831 Y133.700 E14.2293
G1 X121.743 Y133.700 E15.0591
G1 X121.240 Y133.724 E15.0967
G1 X120.347 Y133.888 E15.1647
G1 X119.491 Y134.204 E15.2330
G1 X118.704 Y134.661 E15.3011
G1 X117.993 Y135.262 E15.3707
G1 X117.410 Y135.956 E15.4386
G1 X116.953 Y136.744 E15.5068
G1 X116.637 Y137.602 E15.5751
G1 X116.474 Y138.493 E15.6430
G1 X116.450 Y138.993 E15.6804
G1 X116.450 Y140.679 E15.8066
G1 X116.448 Y140.691 E15.8075
G1 X116.446 Y140.695 E15.8079
G1 X116.441 Y140.698 E15.8082
G1 X116.431 Y140.700 E15.8089
G1 X80.920 Y140.700 E18.4664
G1 X80.920 Y139.200 E18.5787
G1 X69.580 Y139.200 E19.4274
G1 X69.580 Y140.700 E19.5396
G1 X63.573 Y140.700 E19.9891
G1 X63.564 Y140.699 E19.9898
G1 X63.555 Y140.688 E19.9909
G1 X63.550 Y140.666 E19.9925
G1 X63.550 Y138.993 E20.1177
G1 X63.526 Y138.493 E20.1552
G1 X63.363 Y137.602 E20.2230
G1 X63.048 Y136.746 E20.2912
G1 X62.591 Y135.958 E20.3594
G1 X61.993 Y135.248 E20.4289
G1 X61.297 Y134.662 E20.4970
G1 X60.508 Y134.204 E20.5653
G1 X59.645 Y133.886 E20.6340
G1 X58.760 Y133.724 E20.7014
G1 X58.257 Y133.700 E20.7391
G1 X47.175 Y133.700 E21.5684
G1 X47.021 Y133.681 E21.5800
G1 X46.748 Y133.563 E21.6022
G1 X46.598 Y133.417 E21.6179
G1 X46.514 Y133.270 E21.6306
G1 X46.181 Y132.513 E21.6925
G1 X45.762 Y131.848 E21.7513
G1 X45.248 Y131.252 E21.8102
G1 X44.652 Y130.738 E21.8691
G1 X43.989 Y130.320 E21.9277
G1 X43.123 Y129.925 E21.9989
G1 X42.959 Y129.778 E22.0155
G1 X42.872 Y129.648 E22.0272
G1 X42.838 Y129.563 E22.0340
G1 X42.800 Y129.320 E22.0524
G1 X42.800 Y43.669 E28.4622
G1 X42.809 Y43.558 E28.4705
G1 X42.857 Y43.393 E28.4833
G1 X42.933 Y43.248 E28.4956
G1 X42.993 Y43.177 E28.5026
G92 E0
G1 E-1.0000 F1800
G1 Z0.510 F1002
G1 X48.288 Y44.699 F6000
G1 Z0.210 F1002
G1 E0.0000 F1800
G92 E0
G1 X48.094 Y45.423 E0.0561 F1260
G1 X48.029 Y46.170 E0.1122
G1 X48.094 Y46.917 E0.1683
G1 X48.288 Y47.641 E0.2244
G1 X48.605 Y48.321 E0.2805
G1 X49.035 Y48.935 E0.3366
G1 X49.565 Y49.465 E0.3927
G1 X50.179 Y49.895 E0.4488
G1 X50.859 Y50.212 E0.5050
G1 X51.583 Y50.406 E0.5610
G1 X52.330 Y50.471 E0.6172
G1 X53.077 Y50.406 E0.6733
G1 X53.801 Y50.212 E0.7294
G1 X54.481 Y49.895 E0.7855
G1 X55.095 Y49.465 E0.8416
G1 X55.625 Y48.935 E0.8977
G1 X56.055 Y48.321 E0.9538
G1 X56.372 Y47.641 E1.0099
G1 X56.566 Y46.917 E1.0660
G1 X56.631 Y46.170 E1.1221
G1 X56.566 Y45.423 E1.1782
G1 X56.372 Y44.699 E1.2343
G1 X56.055 Y44.019 E1.2904
G1 X55.625 Y43.405 E1.3465
G1 X55.095 Y42.875 E1.4026
G1 X54.481 Y42.445 E1.4587
G1 X53.801 Y42.128 E1.5149
G1 X53.077 Y41.934 E1.5709
G1 X52.330 Y41.869 E1.6271
G1 X51.583 Y41.934 E1.6832
G1 X50.859 Y42.128 E1.7393
G1 X50.179 Y42.445 E1.7954
G1 X49.565 Y42.875 E1.8515
G1 X49.035 Y43.405 E1.9076
G1 X48.605 Y44.019 E1.9637
G1 X48.288 Y44.699 E2.0198
G92 E0
G1 E-1.0000 F1800
G1 Z0.510 F1002
G1 X55.450 Y52.891 F6000
G1 Z0.210 F1002
G1 E0.0000 F1800
G92 E0
G1 X55.286 Y53.085 E0.0190 F1260
G1 X55.158 Y53.301 E0.0377
G1 X55.054 Y53.559 E0.0586
G1 X54.985 Y53.984 E0.0908
G1 X54.984 Y87.833 E2.6239
G1 X55.003 Y88.057 E2.6407
G1 X55.062 Y88.303 E2.6597
G1 X55.157 Y88.538 E2.6786
G1 X55.433 Y88.932 E2.7147
G1 X55.640 Y89.109 E2.7351
G1 X55.857 Y89.240 E2.7540
G1 X56.108 Y89.341 E2.7743
G1 X56.364 Y89.400 E2.7940
G1 X56.628 Y89.416 E2.8137
G1 X87.093 Y89.416 E5.0936
G1 X87.317 Y89.397 E5.1104
G1 X87.563 Y89.338 E5.1294
G1 X87.798 Y89.243 E5.1483
G1 X88.196 Y88.964 E5.1847
G1 X88.370 Y88.759 E5.2048
G1 X88.501 Y88.543 E5.2237
G1 X88.601 Y88.292 E5.2440
G1 X88.660 Y88.039 E5.2634
G1 X88.676 Y87.832 E5.2789
G1 X88.676 Y53.698 E7.8333
G1 X88.606 Y53.298 E7.8637
G1 X88.495 Y53.059 E7.8834
G1 X88.304 Y52.818 E7.9065
G1 X88.036 Y52.602 E7.9322
G1 X87.809 Y52.495 E7.9510
G1 X87.402 Y52.424 E7.9819
G1 X56.563 Y52.424 E10.2897
G1 X56.365 Y52.439 E10.3046
G1 X56.084 Y52.505 E10.3263
G1 X55.656 Y52.718 E10.3620
G1 X55.450 Y52.891 E10.3821
G92 E0
G1 E-1.0000 F1800
G1 Z0.510 F1002
G1 X90.029 Y68.850 F6000
G1 Z0.210 F1002
G1 E0.0000 F1800
G92 E0
G1 X89.860 Y69.213 E0.0300 F1260
G1 X89.755 Y69.601 E0.0600
G1 X89.722 Y69.987 E0.0891
G1 X89.722 Y76.013 E0.5400
G1 X89.755 Y76.399 E0.5690
G1 X89.860 Y76.787 E0.5991
G1 X90.029 Y77.150 E0.6291
G1 X90.259 Y77.480 E0.6591
G1 X90.542 Y77.763 E0.6891
G1 X90.872 Y77.993 E0.7192
G1 X91.235 Y78.162 E0.7491
G1 X91.623 Y78.267 E0.7792
G1 X92.009 Y78.300 E0.8082
G1 X98.035 Y78.300 E1.2592
G1 X98.421 Y78.267 E1.2882
G1 X98.809 Y78.162 E1.3183
G1 X99.173 Y77.993 E1.3483
G1 X99.500 Y77.763 E1.3782
G1 X99.785 Y77.480 E1.4082
G1 X100.015 Y77.150 E1.4383
G1 X100.184 Y76.787 E1.4683
G1 X100.289 Y76.399 E1.4984
G1 X100.322 Y76.013 E1.5274
G1 X100.322 Y69.987 E1.9783
G1 X100.289 Y69.601 E2.0074
G1 X100.184 Y69.213 E2.0374
G1 X100.015 Y68.850 E2.0674
G1 X99.785 Y68.520 E2.0975
G1 X99.500 Y68.237 E2.1275
G1 X99.173 Y68.007 E2.1575
G1 X98.809 Y67.838 E2.1875
G1 X98.421 Y67.733 E2.2175
G1 X98.035 Y67.700 E2.2465
G1 X92.009 Y67.700 E2.6975
G1 X91.623 Y67.733 E2.7265
G1 X91.235 Y67.838 E2.7566
G1 X90.872 Y68.007 E2.7866
G1 X90.542 Y68.237 E2.8166
G1 X90.259 Y68.520 E2.8466
G1 X90.029 Y68.850 E2.8767
G92 E0
G1 E-1.0000 F1800
G1 Z0.510 F1002
G1 X106.063 Y72.573 F6000
G1 Z0.210 F1002
G1 E0.0000 F1800
G92 E0
G1 X106.029 Y72.972 E0.0300 F1260
G1 X106.063 Y73.373 E0.0601
G1 X106.168 Y73.759 E0.0901
G1 X106.337 Y74.122 E0.1200
G1 X106.567 Y74.452 E0.1501
G1 X106.850 Y74.735 E0.1801
G1 X107.179 Y74.965 E0.2101
G1 X107.543 Y75.135 E0.2401
G1 X107.931 Y75.239 E0.2702
G1 X108.330 Y75.273 E0.3002
G1 X108.729 Y75.239 E0.3302
G1 X109.117 Y75.135 E0.3602
G1 X109.481 Y74.965 E0.3903
G1 X109.809 Y74.735 E0.4203
G1 X110.093 Y74.452 E0.4503
G1 X110.323 Y74.122 E0.4803
G1 X110.492 Y73.759 E0.5103
G1 X110.597 Y73.373 E0.5403
G1 X110.631 Y72.972 E0.5704
G1 X110.597 Y72.573 E0.6004
G1 X110.492 Y72.185 E0.6304
G1 X110.323 Y71.821 E0.6604
G1 X110.093 Y71.494 E0.6904
G1 X109.810 Y71.209 E0.7204
G1 X109.480 Y70.979 E0.7505
G1 X109.117 Y70.810 E0.7805
G1 X108.729 Y70.706 E0.8105
G1 X108.330 Y70.671 E0.8405
G1 X107.931 Y70.706 E0.8705
G1 X107.543 Y70.810 E0.9005
G1 X107.180 Y70.979 E0.9305
G1 X106.850 Y71.209 E0.9606
G1 X106.567 Y71.494 E0.9906
G1 X106.337 Y71.821 E1.0206
G1 X106.168 Y72.185 E1.0506
G1 X106.063 Y72.573 E1.0806
G92 E0
G1 E-1.0000 F1800
G1 Z0.510 F1002
G1 X111.913 Y91.262 F6000
G1 Z0.210 F1002
G1 E0.0000 F1800
G92 E0
G1 X49.084 Y91.262 E4.7018 F1260
G1 X48.740 Y91.291 E4.7277
G1 X48.740 Y97.892 E5.2217
G1 X46.954 Y97.892 E5.3553
G1 X46.822 Y98.312 E5.3883
G1 X47.150 Y98.541 E5.4182
G1 X47.766 Y98.828 E5.4691
G1 X48.423 Y99.004 E5.5200
G1 X49.087 Y99.062 E5.5698
G1 X111.913 Y99.062 E10.2715
G1 X112.577 Y99.004 E10.3214
G1 X113.234 Y98.828 E10.3722
G1 X113.851 Y98.541 E10.4231
G1 X114.408 Y98.151 E10.4740
G1 X114.889 Y97.670 E10.5249
G1 X115.279 Y97.113 E10.5758
G1 X115.566 Y96.496 E10.6267
G1 X115.742 Y95.839 E10.6776
G1 X115.801 Y95.162 E10.7285
G1 X115.742 Y94.485 E10.7794
G1 X115.566 Y93.828 E10.8302
G1 X115.279 Y93.211 E10.8811
G1 X114.889 Y92.654 E10.9320
G1 X114.408 Y92.173 E10.9829
G1 X113.851 Y91.783 E11.0338
G1 X113.234 Y91.496 E11.0848
G1 X112.577 Y91.320 E11.1356
G1 X111.913 Y91.262 E11.1855
G92 E0
G1 E-1.0000 F1800
G1 Z0.510 F1002
G1 X106.940 Y105.284 F6000
G1 Z0.210 F1002
G1 E0.0000 F1800
G92 E0
G1 X106.005 Y105.033 E0.0724 F1260
G1 X105.041 Y104.949 E0.1449
G1 X104.078 Y105.033 E0.2172
G1 X103.143 Y105.284 E0.2896
G1 X102.265 Y105.692 E0.3621
G1 X101.473 Y106.247 E0.4345
G1 X100.789 Y106.931 E0.5069
G1 X100.234 Y107.724 E0.5793
G1 X99.825 Y108.601 E0.6517
G1 X99.574 Y109.536 E0.7241
G1 X99.490 Y110.500 E0.7965
G1 X99.574 Y111.464 E0.8690
G1 X99.825 Y112.399 E0.9414
G1 X100.234 Y113.276 E1.0138
G1 X100.789 Y114.069 E1.0862
G1 X101.473 Y114.753 E1.1586
G1 X102.265 Y115.308 E1.2310
G1 X103.143 Y115.716 E1.3035
G1 X104.078 Y115.967 E1.3759
G1 X105.041 Y116.051 E1.4482
G1 X106.005 Y115.967 E1.5207
G1 X106.940 Y115.716 E1.5931
G1 X107.816 Y115.308 E1.6654
G1 X108.610 Y114.753 E1.7379
G1 X109.294 Y114.069 E1.8103
G1 X109.849 Y113.276 E1.8827
G1 X110.258 Y112.399 E1.9551
G1 X110.508 Y111.464 E2.0275
G1 X110.592 Y110.500 E2.1000
G1 X110.508 Y109.536 E2.1724
G1 X110.258 Y108.601 E2.2448
G1 X109.849 Y107.724 E2.3172
G1 X109.294 Y106.931 E2.3896
G1 X108.610 Y106.247 E2.4620
G1 X107.816 Y105.692 E2.5345
G1 X106.940 Y105.284 E2.6068
G92 E0
G1 E-1.0000 F1800
G1 Z0.510 F1002
G1 X106.005 Y120.033 F6000
G1 Z0.210 F1002
G1 E0.0000 F1800
G92 E0
G1 X105.041 Y119.949 E0.0724 F1260
G1 X104.078 Y120.033 E0.1448
G1 X103.143 Y120.284 E0.2172
G1 X102.265 Y120.692 E0.2897
G1 X101.473 Y121.247 E0.3620
G1 X100.789 Y121.931 E0.4344
G1 X100.234 Y122.724 E0.5069
