; G-Code generated by Simplify3D(R) Version 4.0.0
; Sep 7, 2021 at 9:10:49 PM
; Settings Summary
;   processName,Process1
;   applyToModels,parte3
;   profileName,prusa i3 (modified)
;   profileVersion,2020-04-28 11:32:13
;   baseProfile,Default (modified)
;   printMaterial,PLA
;   printQuality,High
;   printExtruders,
;   extruderName,Primary Extruder
;   extruderToolheadNumber,0
;   extruderDiameter,0.4
;   extruderAutoWidth,0
;   extruderWidth,0.6
;   extrusionMultiplier,1
;   extruderUseRetract,1
;   extruderRetractionDistance,1
;   extruderExtraRestartDistance,0
;   extruderRetractionZLift,0.3
;   extruderRetractionSpeed,1800
;   extruderUseCoasting,0
;   extruderCoastingDistance,0.2
;   extruderUseWipe,0
;   extruderWipeDistance,5
;   primaryExtruder,0
;   layerHeight,0.3
;   topSolidLayers,1
;   bottomSolidLayers,3
;   perimeterOutlines,1
;   printPerimetersInsideOut,1
;   startPointOption,2
;   startPointOriginX,0
;   startPointOriginY,0
;   sequentialIslands,0
;   spiralVaseMode,0
;   firstLayerHeightPercentage,70
;   firstLayerWidthPercentage,100
;   firstLayerUnderspeed,0.5
;   useRaft,0
;   raftExtruder,0
;   raftTopLayers,3
;   raftBaseLayers,2
;   raftOffset,3
;   raftSeparationDistance,0.14
;   raftTopInfill,100
;   aboveRaftSpeedMultiplier,0.3
;   useSkirt,0
;   skirtExtruder,0
;   skirtLayers,1
;   skirtOutlines,1
;   skirtOffset,2.5
;   usePrimePillar,0
;   primePillarExtruder,999
;   primePillarWidth,12
;   primePillarLocation,7
;   primePillarSpeedMultiplier,1
;   useOozeShield,0
;   oozeShieldExtruder,999
;   oozeShieldOffset,2
;   oozeShieldOutlines,1
;   oozeShieldSidewallShape,1
;   oozeShieldSidewallAngle,30
;   oozeShieldSpeedMultiplier,1
;   infillExtruder,0
;   internalInfillPattern,Rectilinear
;   externalInfillPattern,Rectilinear
;   infillPercentage,15
;   outlineOverlapPercentage,40
;   infillExtrusionWidthPercentage,100
;   minInfillLength,5
;   infillLayerInterval,1
;   internalInfillAngles,45,-45
;   overlapInternalInfillAngles,0
;   externalInfillAngles,45,-45
;   generateSupport,1
;   supportExtruder,0
;   supportInfillPercentage,40
;   supportExtraInflation,0
;   supportBaseLayers,0
;   denseSupportExtruder,0
;   denseSupportLayers,0
;   denseSupportInfillPercentage,70
;   supportLayerInterval,1
;   supportHorizontalPartOffset,0.3
;   supportUpperSeparationLayers,1
;   supportLowerSeparationLayers,1
;   supportType,0
;   supportGridSpacing,4
;   maxOverhangAngle,45
;   supportAngles,0
;   temperatureName,Primary Extruder,cama
;   temperatureNumber,0,0
;   temperatureSetpointCount,2,1
;   temperatureSetpointLayers,1,2,1
;   temperatureSetpointTemperatures,220,210,60
;   temperatureStabilizeAtStartup,1,1
;   temperatureHeatedBed,0,1
;   temperatureRelayBetweenLayers,0,0
;   temperatureRelayBetweenLoops,0,0
;   fanLayers,1,2
;   fanSpeeds,30,40
;   blipFanToFullPower,0
;   adjustSpeedForCooling,1
;   minSpeedLayerTime,15
;   minCoolingSpeedSlowdown,20
;   increaseFanForCooling,0
;   minFanLayerTime,45
;   maxCoolingFanSpeed,100
;   increaseFanForBridging,0
;   bridgingFanSpeed,100
;   use5D,1
;   relativeEdistances,0
;   allowEaxisZeroing,1
;   independentExtruderAxes,0
;   includeM10123,0
;   stickySupport,1
;   applyToolheadOffsets,0
;   gcodeXoffset,0
;   gcodeYoffset,0
;   gcodeZoffset,0
;   overrideMachineDefinition,1
;   machineTypeOverride,0
;   strokeXoverride,180
;   strokeYoverride,180
;   strokeZoverride,180
;   originOffsetXoverride,0
;   originOffsetYoverride,0
;   originOffsetZoverride,0
;   homeXdirOverride,-1
;   homeYdirOverride,-1
;   homeZdirOverride,-1
;   flipXoverride,1
;   flipYoverride,1
;   flipZoverride,1
;   toolheadOffsets,0,0|0,0|0,0|0,0|0,0|0,0
;   overrideFirmwareConfiguration,0
;   firmwareTypeOverride,RepRap (Marlin/Repetier/Sprinter)
;   GPXconfigOverride,r2
;   baudRateOverride,57600
;   overridePrinterModels,0
;   printerModelsOverride
;   startingGcode,G28 ; home all axes,
;   layerChangeGcode,
;   retractionGcode,
;   toolChangeGcode,
;   endingGcode,M104 S0 ; turn off extruder,M140 S0 ; turn off bed,G91,G1 Z10 F100,G28 X Y,M84 ; disable motors
;   exportFileFormat,gcode
;   celebration,0
;   celebrationSong,Funky Town
;   postProcessing,
;   defaultSpeed,3600
;   outlineUnderspeed,0.7
;   solidInfillUnderspeed,1
;   supportUnderspeed,1
;   rapidXYspeed,6000
;   rapidZspeed,1002
;   minBridgingArea,50
;   bridgingExtraInflation,0
;   bridgingExtrusionMultiplier,1
;   bridgingSpeedMultiplier,1
;   useFixedBridgingAngle,0
;   fixedBridgingAngle,0
;   applyBridgingToPerimeters,0
;   filamentDiameters,1.75|1.75|1.75|1.75|1.75|1.75
;   filamentPricesPerKg,46|46|46|46|46|46
;   filamentDensities,1.25|1.25|1.25|1.25|1.25|1.25
;   useMinPrintHeight,0
;   minPrintHeight,0
;   useMaxPrintHeight,0
;   maxPrintHeight,0
;   useDiaphragm,0
;   diaphragmLayerInterval,20
;   robustSlicing,1
;   mergeAllIntoSolid,0
;   onlyRetractWhenCrossingOutline,0
;   retractBetweenLayers,1
;   useRetractionMinTravel,0
;   retractionMinTravel,3
;   retractWhileWiping,1
;   onlyWipeOutlines,1
;   avoidCrossingOutline,0
;   maxMovementDetourFactor,3
;   toolChangeRetractionDistance,12
;   toolChangeExtraRestartDistance,-0.5
;   toolChangeRetractionSpeed,600
;   externalThinWallType,0
;   internalThinWallType,2
;   thinWallAllowedOverlapPercentage,40
;   singleExtrusionMinLength,1
;   singleExtrusionMinPrintingWidthPercentage,50
;   singleExtrusionMaxPrintingWidthPercentage,200
;   singleExtrusionEndpointExtension,0.2
;   horizontalSizeCompensation,0
G90
M82
M106 S76
M140 S60
M190 S60
M104 S220 T0
M109 S220 T0
G28 ; home all axes
G92 E0
G1 E-1.0000 F1800
G1 Z0.510 F1002
; process Process1
; layer 1, Z = 0.210
T0
; tool H0.300 W0.600
; outer perimeter
G1 X42.808 Y42.112 F6000
G1 Z0.210 F1002
G1 E0.0000 F540
G92 E0
G1 X42.844 Y42.082 E0.0035 F1260
G1 X43.440 Y41.839 E0.0517
G1 X44.020 Y41.486 E0.1025
G1 X44.545 Y41.037 E0.1541
G1 X44.986 Y40.520 E0.2050
G1 X45.341 Y39.935 E0.2562
G1 X45.590 Y39.324 E0.3056
G1 X45.597 Y39.316 E0.3064
G1 X45.647 Y39.300 E0.3103
G1 X134.352 Y39.300 E6.9486
G1 X134.394 Y39.315 E6.9519
G1 X134.417 Y39.343 E6.9547
G1 X134.661 Y39.941 E7.0030
G1 X135.018 Y40.525 E7.0542
G1 X135.459 Y41.042 E7.1050
G1 X135.985 Y41.489 E7.1567
G1 X136.572 Y41.844 E7.2080
G1 X137.170 Y42.088 E7.2564
G1 X137.200 Y42.159 E7.2621
G1 X137.200 Y61.128 E8.6816
G1 X137.193 Y61.175 E8.6853
G1 X137.104 Y61.314 E8.6976
G1 X137.092 Y61.322 E8.6987
G1 X136.967 Y61.350 E8.7083
G1 X134.200 Y61.350 E8.9153
G1 X134.200 Y64.624 E9.1604
G1 X134.125 Y65.055 E9.1931
G1 X133.971 Y65.341 E9.2174
G1 X133.775 Y65.562 E9.2395
G1 X133.605 Y65.684 E9.2552
G1 X133.309 Y65.802 E9.2790
G1 X132.978 Y65.850 E9.3040
G1 X131.987 Y65.850 E9.3782
G1 X131.167 Y65.922 E9.4398
G1 X130.358 Y66.139 E9.5025
G1 X129.599 Y66.492 E9.5651
G1 X128.914 Y66.972 E9.6277
G1 X128.322 Y67.564 E9.6904
G1 X127.842 Y68.249 E9.7530
G1 X127.488 Y69.008 E9.8156
G1 X127.271 Y69.817 E9.8783
G1 X127.199 Y70.650 E9.9409
G1 X127.271 Y71.484 E10.0035
G1 X127.488 Y72.292 E10.0661
G1 X127.842 Y73.051 E10.1288
G1 X128.322 Y73.737 E10.1914
G1 X128.914 Y74.328 E10.2540
G1 X129.599 Y74.808 E10.3166
G1 X130.358 Y75.162 E10.3793
G1 X131.167 Y75.379 E10.4420
G1 X131.987 Y75.450 E10.5036
G1 X132.978 Y75.450 E10.5777
G1 X133.308 Y75.500 E10.6027
G1 X133.677 Y75.673 E10.6332
G1 X134.037 Y76.057 E10.6726
G1 X134.149 Y76.334 E10.6950
G1 X134.200 Y76.672 E10.7206
G1 X134.200 Y79.950 E10.9659
G1 X136.966 Y79.950 E11.1728
G1 X137.074 Y79.975 E11.1811
G1 X137.162 Y80.048 E11.1897
G1 X137.184 Y80.086 E11.1930
G1 X137.200 Y80.176 E11.1998
G1 X137.200 Y130.866 E14.9932
G1 X137.194 Y130.891 E14.9951
G1 X137.181 Y130.904 E14.9965
G1 X136.565 Y131.159 E15.0464
G1 X135.975 Y131.518 E15.0981
G1 X135.455 Y131.963 E15.1493
G1 X135.011 Y132.485 E15.2006
G1 X134.659 Y133.063 E15.2513
G1 X134.397 Y133.690 E15.3021
G1 X134.360 Y133.700 E15.3049
G1 X121.738 Y133.700 E16.2495
G1 X120.921 Y133.764 E16.3109
G1 X120.111 Y133.958 E16.3732
G1 X119.342 Y134.277 E16.4355
G1 X118.633 Y134.713 E16.4977
G1 X118.001 Y135.253 E16.5600
G1 X117.460 Y135.886 E16.6223
G1 X117.025 Y136.596 E16.6846
G1 X116.708 Y137.365 E16.7469
G1 X116.514 Y138.174 E16.8091
G1 X116.450 Y138.988 E16.8702
G1 X116.450 Y140.666 E16.9957
G1 X116.433 Y140.690 E16.9980
G1 X116.401 Y140.700 E17.0005
G1 X110.137 Y140.700 E17.4692
G1 X110.137 Y139.200 E17.5815
G1 X99.351 Y139.200 E18.3887
G1 X99.361 Y140.700 E18.5009
G1 X63.599 Y140.700 E21.1772
G1 X63.557 Y140.686 E21.1805
G1 X63.550 Y140.661 E21.1825
G1 X63.550 Y138.987 E21.3077
G1 X63.472 Y138.089 E21.3752
G1 X63.211 Y137.140 E21.4489
G1 X62.853 Y136.372 E21.5123
G1 X62.286 Y135.565 E21.5861
G1 X61.634 Y134.920 E21.6548
G1 X60.880 Y134.398 E21.7233
G1 X60.049 Y134.013 E21.7919
G1 X59.232 Y133.795 E21.8552
G1 X58.265 Y133.700 E21.9279
G1 X45.633 Y133.700 E22.8732
G1 X45.619 Y133.696 E22.8743
G1 X45.338 Y133.061 E22.9263
G1 X44.982 Y132.475 E22.9776
G1 X44.541 Y131.958 E23.0284
G1 X44.019 Y131.514 E23.0797
G1 X43.434 Y131.158 E23.1309
G1 X42.848 Y130.920 E23.1783
G1 X42.825 Y130.904 E23.1804
G1 X42.800 Y130.844 E23.1853
G1 X42.800 Y42.140 E29.8235
G1 X42.808 Y42.112 E29.8256
G92 E0
G1 E-1.0000 F1800
G1 Z0.510 F1002
G1 X87.397 Y84.316 F6000
G1 Z0.210 F1002
G1 E0.0000 F1800
G92 E0
G1 X87.057 Y84.801 E0.0444 F1260
G1 X86.807 Y85.338 E0.0886
G1 X86.654 Y85.910 E0.1330
G1 X86.602 Y86.500 E0.1773
G1 X86.654 Y87.090 E0.2216
G1 X86.807 Y87.662 E0.2659
G1 X87.057 Y88.199 E0.3102
G1 X87.397 Y88.684 E0.3546
G1 X87.816 Y89.103 E0.3989
G1 X88.301 Y89.443 E0.4433
G1 X88.838 Y89.693 E0.4876
G1 X89.410 Y89.846 E0.5319
G1 X90.000 Y89.898 E0.5762
G1 X90.590 Y89.846 E0.6205
G1 X91.162 Y89.693 E0.6649
G1 X91.699 Y89.443 E0.7092
G1 X92.184 Y89.103 E0.7535
G1 X92.603 Y88.684 E0.7979
G1 X92.943 Y88.199 E0.8422
G1 X93.193 Y87.662 E0.8865
G1 X93.346 Y87.090 E0.9308
G1 X93.398 Y86.500 E0.9751
G1 X93.346 Y85.910 E1.0195
G1 X93.193 Y85.338 E1.0638
G1 X92.943 Y84.801 E1.1081
G1 X92.603 Y84.316 E1.1524
G1 X92.184 Y83.897 E1.1968
G1 X91.699 Y83.557 E1.2411
G1 X91.162 Y83.307 E1.2854
G1 X90.590 Y83.154 E1.3298
G1 X90.000 Y83.102 E1.3741
G1 X89.410 Y83.154 E1.4184
G1 X88.838 Y83.307 E1.4627
G1 X88.301 Y83.557 E1.5070
G1 X87.816 Y83.897 E1.5514
G1 X87.397 Y84.316 E1.5957
G92 E0
G1 E-1.0000 F1800
G1 Z0.510 F1002
G1 X95.896 Y95.078 F6000
G1 Z0.210 F1002
G1 E0.0000 F1800
G92 E0
G1 X95.788 Y95.169 E0.0106 F1260
G1 X95.268 Y95.996 E0.0837
G1 X95.254 Y96.112 E0.0924
G1 X95.197 Y96.498 E0.1216
G1 X95.265 Y96.963 E0.1568
G1 X95.440 Y97.404 E0.1923
G1 X95.833 Y97.872 E0.2380
G1 X96.138 Y98.078 E0.2655
G1 X96.635 Y98.259 E0.3052
G1 X96.749 Y98.279 E0.3138
G1 X97.452 Y98.241 E0.3665
G1 X98.107 Y97.916 E0.4212
G1 X98.206 Y97.832 E0.4309
G1 X98.681 Y97.155 E0.4928
G1 X98.804 Y96.504 E0.5424
G1 X98.731 Y96.016 E0.5793
G1 X98.539 Y95.560 E0.6164
G1 X98.049 Y95.036 E0.6701
G1 X97.489 Y94.768 E0.7165
G1 X97.007 Y94.696 E0.7530
G1 X96.632 Y94.735 E0.7812
G1 X95.896 Y95.078 E0.8420
G92 E0
G1 E-1.0000 F1800
G1 Z0.510 F1002
; solid layer
G1 X99.151 Y96.606 F6000
G1 Z0.210 F1002
G1 E0.0000 F1800
G92 E0
G1 X134.765 Y132.219 E3.7691 F1800
G1 X134.718 Y132.273 E3.7744
G1 X134.435 Y132.738 E3.8151
G1 X99.010 Y97.313 E7.5643
G1 X98.660 Y97.812 E7.6099
G1 X134.163 Y133.315 E11.3673
G1 X134.153 Y133.340 E11.3693
G1 X133.340 Y133.340 E11.4301
G1 X98.248 Y98.248 E15.1441
G1 X97.681 Y98.529 E15.1914
G1 X132.491 Y133.340 E18.8756
G1 X131.643 Y133.340 E18.9391
G1 X96.932 Y98.629 E22.6126
G92 E0
G1 E-1.0000 F1800
G1 Z0.510 F1002
G1 X87.915 Y89.612 F6000
G1 Z0.210 F1002
G1 E0.0000 F1800
G92 E0
G1 X94.838 Y96.535 E0.7327 F1800
G1 X94.833 Y96.498 E0.7356
G1 X94.897 Y96.063 E0.7684
G1 X94.920 Y95.873 E0.7828
G1 X94.960 Y95.809 E0.7885
G1 X89.354 Y90.203 E1.3818
G1 X90.000 Y90.260 E1.4303
G1 X90.239 Y90.239 E1.4482
G1 X95.288 Y95.288 E1.9826
G1 X95.513 Y94.930 E2.0142
G1 X95.657 Y94.808 E2.0283
G1 X90.966 Y90.118 E2.5247
G1 X91.286 Y90.032 E2.5495
G1 X91.588 Y89.891 E2.5745
G1 X96.225 Y94.528 E3.0651
G1 X96.535 Y94.383 E3.0907
G1 X96.891 Y94.346 E3.1176
G1 X92.128 Y89.582 E3.6217
G1 X92.416 Y89.380 E3.6481
G1 X92.595 Y89.201 E3.6670
G1 X98.014 Y94.620 E4.2406
G1 X98.265 Y94.740 E4.2613
G1 X98.846 Y95.361 E4.3250
G1 X98.912 Y95.518 E4.3377
G1 X135.155 Y131.761 E8.1734
G1 X135.199 Y131.708 E8.1785
G1 X135.604 Y131.362 E8.2184
G1 X92.995 Y88.752 E12.7279
G1 X93.256 Y88.379 E12.7620
G1 X93.324 Y88.233 E12.7740
G1 X136.107 Y131.016 E17.3019
G1 X136.402 Y130.837 E17.3277
G1 X136.667 Y130.727 E17.3492
G1 X93.573 Y87.633 E21.9099
G1 X93.702 Y87.153 E21.9472
G1 X93.721 Y86.933 E21.9637
G1 X136.840 Y130.052 E26.5270
G1 X136.840 Y129.203 E26.5905
G1 X93.723 Y86.086 E31.1537
G92 E0
G1 E-1.0000 F1800
G1 Z0.510 F1002
G1 X129.433 Y75.128 F6000
G1 Z0.210 F1002
G1 E0.0000 F1800
G92 E0
G1 X133.840 Y79.534 E0.4664 F1800
G1 X133.840 Y78.686 E0.5299
G1 X130.810 Y75.656 E0.8505
G1 X131.104 Y75.734 E0.8733
G1 X131.798 Y75.795 E0.9254
G1 X133.840 Y77.837 E1.1416
G1 X133.840 Y76.989 E1.2051
G1 X132.661 Y75.810 E1.3298
G92 E0
G1 E-1.0000 F1800
G1 Z0.510 F1002
G1 X136.313 Y80.310 F6000
G1 Z0.210 F1002
G1 E0.0000 F1800
G92 E0
G1 X136.840 Y80.837 E0.0558 F1800
G1 X136.840 Y81.686 E0.1193
G1 X135.464 Y80.310 E0.2649
G1 X134.616 Y80.310 E0.3284
G1 X136.840 Y82.534 E0.5638
G92 E0
G1 E-1.0000 F1800
G1 Z0.510 F1002
G1 X133.847 Y39.660 F6000
G1 Z0.210 F1002
G1 E0.0000 F1800
G92 E0
G1 X134.416 Y40.229 E0.0602 F1800
G1 X134.726 Y40.737 E0.1047
G1 X135.204 Y41.298 E0.1599
G1 X135.774 Y41.782 E0.2159
G1 X136.268 Y42.081 E0.2590
G1 X136.840 Y42.653 E0.3196
G1 X136.840 Y43.502 E0.3831
G1 X132.998 Y39.660 E0.7897
G1 X132.150 Y39.660 E0.8532
G1 X136.840 Y44.350 E1.3496
G1 X136.840 Y45.199 E1.4131
G1 X131.301 Y39.660 E1.9992
G1 X130.453 Y39.660 E2.0627
G1 X136.840 Y46.047 E2.7387
G1 X136.840 Y46.896 E2.8022
G1 X129.604 Y39.660 E3.5680
G1 X128.756 Y39.660 E3.6315
G1 X136.840 Y47.745 E4.4871
G1 X136.840 Y48.593 E4.5506
G1 X127.907 Y39.660 E5.4959
G1 X127.059 Y39.660 E5.5594
G1 X136.840 Y49.442 E6.5946
G1 X136.840 Y50.290 E6.6581
G1 X126.210 Y39.660 E7.7831
G1 X125.362 Y39.660 E7.8466
G1 X136.840 Y51.139 E9.0614
G1 X136.840 Y51.987 E9.1249
G1 X124.513 Y39.660 E10.4295
G1 X123.665 Y39.660 E10.4930
G1 X136.840 Y52.836 E11.8874
G1 X136.840 Y53.684 E11.9509
G1 X122.816 Y39.660 E13.4351
G1 X121.968 Y39.660 E13.4986
G1 X136.840 Y54.533 E15.0726
G1 X136.840 Y55.381 E15.1361
G1 X121.119 Y39.660 E16.7999
G1 X120.270 Y39.660 E16.8634
G1 X136.840 Y56.230 E18.6170
G1 X136.840 Y57.078 E18.6805
G1 X119.422 Y39.660 E20.5239
G1 X118.573 Y39.660 E20.5874
G1 X136.840 Y57.927 E22.5206
G1 X136.840 Y58.775 E22.5841
G1 X117.725 Y39.660 E24.6071
G1 X116.876 Y39.660 E24.6706
G1 X136.840 Y59.624 E26.7835
G1 X136.840 Y60.472 E26.8470
G1 X116.028 Y39.660 E29.0496
G1 X115.179 Y39.660 E29.1131
G1 X136.509 Y60.990 E31.3705
G1 X135.660 Y60.990 E31.4340
G1 X114.331 Y39.660 E33.6914
G1 X113.482 Y39.660 E33.7549
G1 X134.812 Y60.990 E36.0123
G1 X133.963 Y60.990 E36.0758
G1 X112.634 Y39.660 E38.3332
G1 X111.785 Y39.660 E38.3967
G1 X133.840 Y61.715 E40.7308
G1 X133.840 Y62.564 E40.7943
G1 X110.937 Y39.660 E43.2182
G1 X110.088 Y39.660 E43.2817
G1 X133.840 Y63.412 E45.7955
G1 X133.840 Y64.261 E45.8590
G1 X109.240 Y39.660 E48.4625
G1 X108.391 Y39.660 E48.5260
G1 X133.741 Y65.010 E51.2089
G1 X133.674 Y65.134 E51.2194
G1 X133.533 Y65.293 E51.2353
G1 X133.430 Y65.366 E51.2447
G1 X133.300 Y65.418 E51.2552
G1 X107.542 Y39.660 E53.9812
G1 X106.694 Y39.660 E54.0447
G1 X132.524 Y65.490 E56.7784
G1 X131.971 Y65.490 E56.8197
